X:1
T:Brnnvinspolska efter Lorens Brolin 
T:(SvL Skne 1004)
R:Brnnvinspolska, Engelska 
Z:Jonas Brunskog, 28/6 2008
O:Abbeks, Skne
S:efter Lorens Brolin
B:Svenska Ltar
N:Sv. L. Sk. 1004, samt Omtyckta Sknska Allspelsltar
M:2/4
L:1/16
K:A
|:A2(ce) a2a2|(ag)bg e3c|d2(fd) c2(ec) | (dB)(GB) TB2A2|
A2(ce) a2a2|(ag)bg e3c|d2(fd) c2(ec) |(dB)(GB) A4:|
|:(Ac)(ec) (cB)B2|(Bd)(fd) (dc)c2|(Ac)(ec) (dE)(GB)|A2(ce) (Lga)(Lga)|
(Ac)(ec) (cB)B2|(Bd)(fd) (dc)c2|(Ac)(ec) (dE)(GB)|A6 z2:|
